public/logos/18_eu/2.svg

<svg xmlns="http://www.w3.org/2000/svg" viewBox="0 0 38 38"  fill-rule="nonzero" stroke-linejoin="round" stroke-miterlimit="2" xmlns:v="https://vecta.io/nano"><path d="M36.72 18.72c0-9.875-8.125-18-18-18s-18 8.125-18 18 8.125 18 18 18 18-8.125 18-18" fill="#202020"/><path d="M12.12 29v-1.61l3-2.94c1.847-1.644 3.486-3.508 4.88-5.55.65-1.121.995-2.394 1-3.69a3.92 3.92 0 0 0-.87-2.73 3 3 0 0 0-2.4-1 4.06 4.06 0 0 0-2 .48c-.444.218-.811.567-1.05 1-.06.15-.27 1-.63 2.49h-1.21c.291-1.708.491-3.431.6-5.16.69-.709 1.516-1.271 2.43-1.65a8.28 8.28 0 0 1 2.94-.51 6.4 6.4 0 0 1 4.59 1.59 5.3 5.3 0 0 1 1.68 4.08c-.027 1.436-.487 2.83-1.32 4-.88 1.35-3.3 3.84-7.29 7.44l.09.18H20c2.55 0 4.49-.06 5.9-.18l.16.18c-.09.84-.16 1.47-.16 1.89a11.44 11.44 0 0 0 .1 1.58l-.16.15a138.52 138.52 0 0 0-6.54-.15c-1.78 0-4.18.11-7.18.11z" fill="#fff"/></svg>

<?xml version="1.0" encoding="UTF-8" standalone="no"?>
<!DOCTYPE svg PUBLIC "-//W3C//DTD SVG 1.1//EN" "http://www.w3.org/Graphics/SVG/1.1/DTD/svg11.dtd">
<svg width="100%" height="100%" viewBox="0 0 38 38" version="1.1" xmlns="http://www.w3.org/2000/svg" xmlns:xlink="http://www.w3.org/1999/xlink" xml:space="preserve" xmlns:serif="http://www.serif.com/" style="fill-rule:evenodd;clip-rule:evenodd;stroke-linejoin:round;stroke-miterlimit:2;">
    <path d="M36.72,18.72C36.72,8.845 28.595,0.72 18.72,0.72C8.845,0.72 0.72,8.845 0.72,18.72C0.72,28.595 8.845,36.72 18.72,36.72C28.595,36.72 36.72,28.595 36.72,18.72" style="fill:rgb(32,32,32);fill-rule:nonzero;"/>
    <path d="M12.12,29L12.12,27.39L15.12,24.45C16.967,22.806 18.606,20.942 20,18.9C20.65,17.779 20.995,16.506 21,15.21C21.065,14.223 20.754,13.247 20.13,12.48C19.524,11.8 18.64,11.431 17.73,11.48C17.033,11.466 16.344,11.631 15.73,11.96C15.286,12.178 14.919,12.527 14.68,12.96C14.62,13.11 14.41,13.96 14.05,15.45L12.84,15.45C13.131,13.742 13.331,12.019 13.44,10.29C14.13,9.581 14.956,9.019 15.87,8.64C16.811,8.293 17.807,8.121 18.81,8.13C20.489,8.036 22.139,8.608 23.4,9.72C24.526,10.771 25.14,12.261 25.08,13.8C25.053,15.236 24.593,16.63 23.76,17.8C22.88,19.15 20.46,21.64 16.47,25.24L16.56,25.42L20,25.42C22.55,25.42 24.49,25.36 25.9,25.24L26.06,25.42C25.97,26.26 25.9,26.89 25.9,27.31C25.897,27.838 25.93,28.366 26,28.89L25.84,29.04C23.93,28.95 21.76,28.89 19.3,28.89C17.52,28.89 15.12,29 12.12,29Z" style="fill:white;fill-rule:nonzero;"/>
</svg>
